X:0589
T:Pither in enough.
C:Irish
M:6/8
L:1/8
Q:3/8=120
I: :: :: :: % first repeat partly un-inked
Z:Jack Campin * www.campin.me.uk * 2009
K:D
A/G/| F>GF TFED|B>cB Bcd|F>GF TFED|A2A  A2 \
d   | FGF  TFED|B2B  Bcd| cBA  dAF|ABA  A2::
d   |TcBA   cec|dBB TB2d|TcBA  cec|ABA  A2 \
d   |TcBA   cec|dBB  B2d|TcBA  dAF|A>BA A2::
G   |TF2d  TF2d|B2B  Bcd|TF2d TF2d|A2A  A2 \
G   |TF2d  TF2d|B2B  Bcd|TcBA  dAF|ABA  A2:|

